X: 2155
T: Şehnâz Longa
C: Santûrî Ethem Efendi
O: Turkey
F: http://compmusic.upf.edu/node/140
N: sehnaz--longa--sofyan----santuri_ethem_efendi
N: makam= sehnaz
N: form= longa
N: usul= sofyan = 4/4
M: 4/4
L: 1/16
K: C _7/8B ^1/4f ^c ^g
Q: 1/4=150
%%MIDI tuningsystem comma53
a4 a4 a2a2 =c'=ba2  | gaga gagf g2a2 =bd'=c'b  | 
w:  1. HANE  |   | 
a=c'=ba gbag fed2 fedc  | d3e f2g2 a=bag fed2  | 
w:   |   | 
a4 a4 a2a2 =c'=ba2  | gaga gagf g2a2 =bd'=c'b  | 
w:  1. HANE  |   | 
a=c'=ba gbag fed2 fedc  | d3f a2f2 d2ef edcB  | 
w:   |   | 
A4 c4 e4 .a4  | A4 c4 e4 .=g4  | a=gfa gfeg fedf edce  | 
w:  TESLİM  |   |   | 
dcBd cBAG ABAG FED2  | Acec Acec Acec .a4  | 
w:   |   | 
Acec Acec Acec =g4  | a=gfa gfeg fedf edce  | 
w:   |   | 
d3=f a2f2 d2A2 d4  | z2ba g2a2 b6a2  | \
w:   |   | 
a3/2b/ag f2g2 abag fed2  | 
w:   | 
.=g2.g2 z4 .f2.f2 z4  | efed cdef edcB cBA2  | 
w:   |   | 
z2ba g2a2 d'6c'2  | b3a gab2 abag fed2  | \
w:   |   | 
z2b2 a2g2 f2e2 d2c2  | 
w:   | 
d3=f a2f2 d2ef edcB  | A4 c4 e4 .a4  | \
w:   |  TESLİM  | 
A4 c4 e4 .=g4  | a=gfa gfeg fedf edce  | 
w:   |   | 
dcBd cBAG ABAG FED2  | Acec Acec Acec .a4  | 
w:   |   | 
Acec Acec Acec =g4  | a=gfa gfeg fedf edce  | 
w:   |   | 
d3=f a2f2 d2A2 d4  | A2ed c2d2 e6f2  | \
w:   |  3. HANE  | 
g3b a2g2 f2e2 d4  | 
w:   | 
z2d'4c'2 b3a gab2  | efga gfed cdef edcB  | 
w:   |   | 
A2ed c2d2 e6f2  | g3b a2g2 f2e2 d4  | \
w:  3. HANE  |   | 
z2b2 a2g2 f2e2 d2c2  | 
w:   | 
d3f a2f2 d2ef edcB  | A4 c4 e4 .a4  | \
w:   |  TESLİM  | 
A4 c4 e4 .=g4  | a=gfa gfeg fedf edce  | 
w:   |   | 
dcBd cBAG ABAG FED2  | Acec Acec Acec .a4  | 
w:   |   | 
Acec Acec Acec =g4  | a=gfa gfeg fedf edce  | 
w:   |   | 
d3=f a2f2 d2A2 d4  | |


